X:1
T:Signore, dolce volto
T:Signore, dolce volto
T:O Haupt voll Blut und Wunden
T:G. Blassich, H.L. Hassler, J.S. Bach
T:Paul Gerhardt
T:©2011 MuseScore
T:©2011 MuseScore
Z:©2011 MuseScore
%%score [ 1 2 3 4 ]
L:1/8
Q:1/4=80
M:4/4
K:D
V:1 treble nm="Soprani" snm="S"
V:2 treble nm="Contralti" snm="C"
V:3 bass nm="Tenori" snm="T"
V:4 bass nm="Bassi" snm="B"
V:1
 F2 | B2 A2 G2 F2 | E4 F2 c2 | d2 d2 (cB) c2 | B6 F2 | B2 A2 G2 F2 | E4 F2 c2 | d2 d2 (cB) c2 | %8
w: Si-|gno- re, dol- ce|vol- to di|pe- na~e di * do-|lor. O|vol- to pien di|lu- ce col-|pi- to per * a-|
 B6 d2 | cB A2 B2 c2 | d4 d2 A2 | B2 A2 G2 G2 | F6 =d2 | (cd) e2 d2 c2 | B4 c2 F2 | G2 F2 E2 A2 | %16
w: mor. Av-|vol- * to nel- la|mor- te per-|du- to sei per|noi. Ac-|co- * gli~il no- stro|pian- to, O|no- stro Sal- va-|
 F6 z2 |] %17
w: tor.|
V:2
 D2 | D2 D2 DEED | D2 C2 D2 E2 | DE F2 E3 D | D6 D2 | D2 D2 DEED | D2 C2 D2 E2 | DE F2 F3 E | %8
 D6 F2 | EGFE D2 G2 | G2 FE F2 F2 | G2 F2 E2 E2 | ^D6 E2 | E2 E2 F^G A2 | A2 ^G2 A2 DC | %15
 B,C D2 DB, C2 | D6 z2 |] %17
V:3
 A,2 | G,2 A,2 B,A, A,2 | B,2 A,2 A,2 ^A,2 | B,2 B,2 B,2 ^A,2 | B,6 A,2 | G,2 A,2 B,A, A,2 | %6
w: Si-|gno- re, dol- * ce|vol- * to di|pe- na~e di do-|lor. O|vol- to pien * di|
 B,2 A,2 A,2 ^A,2 | B,2 B,2 B,2 ^A,2 | B,6 B,A, | G,B,DC B,A,G,A, | B,2 A,G, A,2 D2 | %11
w: lu- * ce col-|pi- to per a-|mor A- *|vol- * to- * nel- * la *|mor- * * te per-|
 D2 =C2 B,2 B,2 | B,6 B,2 | A,2 B,2 A,B,CB, | F2 E2 E2 A,2 | G,2 A,2 A,2 A,2 | A,6 z2 |] %17
w: du- to sei per|noi. Ac-|co- gli~il no- * stro *|pian- * to, O|no- stro Sal- va-|tor.|
V:4
 D,2 | G,2 F,2 B,,C, D,2 | G,,2 A,,2 D,2 C,2 | B,,C,D,E, F,2 F,,2 | B,,6 D,2 | G,2 F,2 B,,C, D,2 | %6
 G,,2 A,,2 D,2 C,2 | B,,C,D,E, F,2 F,,2 | B,,6 B,,2 | E,2 F,2 G,F, E,2 | D,4 D,2 D,2 | %11
 G,F,E,^D, E,F,G,A, | B,6 ^G,2 | A,2 ^G,2 F,2 E,2 | ^D,2 E,2 A,,2 =D,2 | E,2 F,G, A,2 A,,2 | %16
 D,6 z2 |] %17

